X: 39491
T: Tatter Jack Walsh
R: jig
M: 6/8
K: Dmixolydian
|:e|"D"f3d3|"C"cAB c2c|"D"dcA GFG|"A"Add efg|
"D"f3d3|"C"cAB c2c|"A"dcA GFG|"D"Ad^c d2:|
|:A|"D"dfa afd|dfa a2f|"C"g3 ged|cde g3|
"D"afd fed|"C"cAB cde|"A"dcA GFG|"D"Ad^c d2:|

